X: 9690
T: Dear Tobacco
R: reel
M: 4/4
K: Gmajor
||BEEF G/F/E/D/F2|BEEc dcBA|BEEF G/F/E/D/F2|
Beef g/f/e/d/E2|Beef gefd|Bdde d/c/B/c/ d2|

